X:1123
L:1/8
M:4/4
K:G
"^Slow" G<G G>A c<A A2 | c2 g>c a>c e>g | E>Gc>G A<a a2 | g>d e>c a>G A<c :: f>ga>g g<e e2 | 
 (e<d) d>e g>c e<g | E>Gc>G A<aa>g | c'>ga>e g>G A<c :: GG/G/ (G>A) cA/A/ (A>c) | 
 cc/c/ g>c a>c (e<g) | EE/E/ G>g FF/F/ (a>c') | f>de>c a>G Ac :: ff/f/ (a>g) ge/e/ (e>d) | 
 dc/c/ g>c a>c e>g | E>G c>G A>a a2 | g>de>c a>G A<c :|

